docs/logo-mark.svg

<svg xmlns="http://www.w3.org/2000/svg" xmlns:xlink="http://www.w3.org/1999/xlink" viewBox="0 0 96 96"><defs><linearGradient id="b"><stop offset="0" stop-color="#55ffb1"/><stop offset="1" stop-color="#00de78"/></linearGradient><linearGradient id="a"><stop offset="0" stop-color="#51a7ff"/><stop offset="1" stop-color="#0072e7"/></linearGradient><linearGradient id="c" x1="31.25" x2="79.75" y1="99.125" y2="90.5" gradientTransform="translate(-16 -32)" gradientUnits="userSpaceOnUse" xlink:href="#a"/><linearGradient id="d" x1="64" x2="48" y1="42.125" y2="70.75" gradientTransform="translate(-16 -32)" gradientUnits="userSpaceOnUse" xlink:href="#b"/><linearGradient id="e" x1="31.354" x2="79.823" y1="80.177" y2="90.076" gradientTransform="translate(-16 -32)" gradientUnits="userSpaceOnUse" xlink:href="#b"/><linearGradient id="f" x1="96.79" x2="48.386" y1="80" y2="71.338" gradientTransform="translate(-16 -32)" gradientUnits="userSpaceOnUse" xlink:href="#a"/></defs><path fill="url(#c)" d="M48 28L16 47l16 10-17 10 33 19 33-19V48l-15.656-9.031z"/><path fill="url(#d)" d="M48 10L15 29v19l17 10 16 9 16-9-32-19 16-10 16.283 9.35L81 29z"/><path fill="url(#e)" d="M15 29v19l33 19 16-9-32-19z"/><path fill="url(#f)" d="M48 29L32 39l32 19 17 9V48z"/></svg>

<?xml version="1.0" encoding="UTF-8" standalone="no"?>
<!-- Created with Inkscape (http://www.inkscape.org/) -->

<svg
   xmlns:dc="http://purl.org/dc/elements/1.1/"
   xmlns:cc="http://creativecommons.org/ns#"
   xmlns:rdf="http://www.w3.org/1999/02/22-rdf-syntax-ns#"
   xmlns:svg="http://www.w3.org/2000/svg"
   xmlns="http://www.w3.org/2000/svg"
   xmlns:xlink="http://www.w3.org/1999/xlink"
   xmlns:sodipodi="http://sodipodi.sourceforge.net/DTD/sodipodi-0.dtd"
   xmlns:inkscape="http://www.inkscape.org/namespaces/inkscape"
   version="1.1"
   viewBox="0 0 96 96"
   id="svg3249"
   inkscape:version="0.48.4 r9939"
   width="100%"
   height="100%"
   sodipodi:docname="logo.svg">
  <sodipodi:namedview
     pagecolor="#ffffff"
     bordercolor="#666666"
     borderopacity="1"
     objecttolerance="10"
     gridtolerance="10"
     guidetolerance="10"
     inkscape:pageopacity="0"
     inkscape:pageshadow="2"
     inkscape:window-width="1301"
     inkscape:window-height="744"
     id="namedview3273"
     showgrid="false"
     inkscape:zoom="1"
     inkscape:cx="207.37156"
     inkscape:cy="82.014895"
     inkscape:window-x="65"
     inkscape:window-y="24"
     inkscape:window-maximized="1"
     inkscape:current-layer="svg3249" />
  <defs
     id="defs3251">
    <linearGradient
       id="linearGradient4111">
      <stop
         style="stop-color:#55ffb1;stop-opacity:1;"
         offset="0"
         id="stop4113" />
      <stop
         style="stop-color:#00de78;stop-opacity:1;"
         offset="1"
         id="stop4115" />
    </linearGradient>
    <linearGradient
       id="linearGradient4103">
      <stop
         style="stop-color:#51a7ff;stop-opacity:1;"
         offset="0"
         id="stop4105" />
      <stop
         style="stop-color:#0072e7;stop-opacity:1;"
         offset="1"
         id="stop4107" />
    </linearGradient>
    <linearGradient
       inkscape:collect="always"
       xlink:href="#linearGradient4103"
       id="linearGradient4109"
       x1="31.25"
       y1="99.125"
       x2="79.75"
       y2="90.5"
       gradientUnits="userSpaceOnUse"
       gradientTransform="translate(-16,-32)" />
    <linearGradient
       inkscape:collect="always"
       xlink:href="#linearGradient4111"
       id="linearGradient4117"
       x1="64"
       y1="42.125"
       x2="48"
       y2="70.75"
       gradientUnits="userSpaceOnUse"
       gradientTransform="translate(-16,-32)" />
    <linearGradient
       inkscape:collect="always"
       xlink:href="#linearGradient4111"
       id="linearGradient4125"
       x1="31.353554"
       y1="80.176773"
       x2="79.823219"
       y2="90.076271"
       gradientUnits="userSpaceOnUse"
       gradientTransform="translate(-16,-32)" />
    <linearGradient
       inkscape:collect="always"
       xlink:href="#linearGradient4103"
       id="linearGradient4133"
       x1="96.790367"
       y1="80"
       x2="48.38641"
       y2="71.337944"
       gradientUnits="userSpaceOnUse" />
    <linearGradient
       inkscape:collect="always"
       xlink:href="#linearGradient4103"
       id="linearGradient4135"
       gradientUnits="userSpaceOnUse"
       x1="96.790367"
       y1="80"
       x2="48.38641"
       y2="71.337944"
       gradientTransform="translate(-16,-32)" />
  </defs>
  <metadata
     id="metadata3253">
    <rdf:RDF>
      <cc:Work
         rdf:about="">
        <dc:format>image/svg+xml</dc:format>
        <dc:type
           rdf:resource="http://purl.org/dc/dcmitype/StillImage" />
        <dc:title></dc:title>
      </cc:Work>
    </rdf:RDF>
  </metadata>
  <path
     style="fill:url(#linearGradient4109);fill-opacity:1"
     d="M 48,28 16,47 32,57 15,67 48,86 81,67 81,48 65.34375,38.96875 z"
     id="path3257"
     inkscape:connector-curvature="0"
     sodipodi:nodetypes="ccccccccc" />
  <path
     inkscape:connector-curvature="0"
     style="fill:url(#linearGradient4117);fill-opacity:1"
     id="path3259"
     d="M 48,10 15,29 15,48 32,58 48,67 64,58 32,39 48,29 64.28334,38.350282 81,29 z"
     sodipodi:nodetypes="ccccccccccc" />
  <path
     sodipodi:nodetypes="cccccc"
     d="M 15,29 15,48 48,67 64,58 32,39 z"
     id="path4084"
     style="fill:url(#linearGradient4125);fill-opacity:1"
     inkscape:connector-curvature="0" />
  <path
     style="fill:url(#linearGradient4135);fill-opacity:1"
     d="M 48,29 32,39 64,58 81,67 81,48 z"
     id="path4092"
     inkscape:connector-curvature="0"
     sodipodi:nodetypes="cccccc" />
</svg>
